!!!OTL: TRARIRO DER SOMMER DER IST DO
!!!ARE: Europa, Mitteleuropa, Deutschland, Rheinpfalz
!!!SCT: E1219
!!!YEM: Copyright 1995, estate of Helmut Schaffrath.
**kern
*ICvox
*Ivox
*M2/4
*k[b-]
*F:
=1
{4cc
4dd
=2
4cc
8r}
{8a
=3
8cc
8cc
8dd
8dd
=4
4cc
8r}
{8a
=5
8g
8a
8b-
8g
=6
8.a
16b-
8cc}
{8a
=7
8g
8a
8b-
8g
=8
8.a
16b-
4cc}
=9
{4cc
4dd
=10
4cc
8r}
{8b-
=11
8a
8a
8g
8g
=12
4f
4r}
==
!!!AGN: Ansinge -, Brauchtums - Lied, Kirchen - Fest, Sommer - Tags - Lied
!!!ONB: ESAC (Essen Associative Code) Database: ERK3
!!!AMT: simple duple
!!!AIN: vox
!!!EED: Helmut Schaffrath
!!!EEV: 1.0
*-
